assets/bank-tab/Asset/Xpressway.svg

<svg width="24" height="24" viewBox="0 0 24 24" fill="none" xmlns="http://www.w3.org/2000/svg">
<path d="M10.1441 15.624C6.13017 17.9304 3.99984 18.7378 0.571289 20.5L23.9006 4.07745L23.9999 4.15687L19.5165 13.1067C19.1413 12.5156 18.7944 11.9917 18.4726 11.4518C18.277 11.1237 18.1044 11.0273 17.7351 11.2496C16.4656 12.0134 15.1707 12.7309 13.8866 13.4687C13.8216 13.506 13.7678 13.565 13.6636 13.651C15.1915 15.9057 16.742 18.1721 18.2841 20.4472C18.1049 20.4472 17.9552 20.4429 17.8439 20.4429C16.6124 20.4446 13.8212 20.4294 13.8212 20.4294C13.8212 20.4294 13.7349 20.3066 13.6336 20.1599C12.6238 18.6968 11.6245 17.2255 10.6548 15.7338C10.4735 15.4543 10.3617 15.499 10.1441 15.624Z" fill="#EC1C24"/>
<path d="M7.99418 14.6568C7.50015 15.004 7.00654 15.3508 6.51167 15.6989L0 19.9122L2.66628 17.5282C3.6064 16.7249 5.47317 14.876 8.56909 12.2059C6.95025 9.85268 5.27431 7.42132 3.59919 4.98563C3.81014 4.98563 7.87995 4.98997 7.87995 4.98997C7.87995 4.98997 7.98834 5.13927 8.10091 5.30116C9.06103 6.68436 9.99489 8.08754 10.9404 9.4816C11.0271 9.61007 11.1405 9.719 11.2723 9.87351L15.3754 6.34019C14.9531 5.66443 14.5425 5.00733 14.0726 4.25518C16.8237 4.0386 19.5171 3.82668 22.2015 3.61548L23.6693 3.49999L23.7181 3.60242L10.3864 12.975C9.88483 13.3274 9.03518 13.9246 7.99418 14.6568Z" fill="#EC1C24"/>
</svg>

<svg xmlns="http://www.w3.org/2000/svg" width="24" height="24" fill="none" viewBox="0 0 24 24"><path fill="#ec1c24" d="M10.144 15.624C6.13 17.93 4 18.738.571 20.5l23.33-16.423.099.08-4.483 8.95c-.376-.591-.723-1.115-1.044-1.655-.196-.328-.369-.425-.738-.202-1.27.763-2.564 1.48-3.848 2.219-.065.037-.12.096-.223.182 1.527 2.255 3.078 4.521 4.62 6.796l-.44-.004c-1.232.002-4.023-.014-4.023-.014s-.086-.122-.187-.27a193 193 0 0 1-2.98-4.425c-.18-.28-.292-.235-.51-.11m-2.15-.967-1.482 1.042L0 19.912l2.666-2.384c.94-.803 2.807-2.652 5.903-5.322L3.6 4.986l4.28.004c.001 0 .11.15.222.311.96 1.383 1.894 2.787 2.84 4.18.086.13.2.238.331.393l4.103-3.534-1.302-2.085 8.128-.64L23.67 3.5l.05.102-13.333 9.373z"/></svg>
